packages/ffe-icons/icons/filled/md/laptop_windows.svg

<svg xmlns="http://www.w3.org/2000/svg" height="24" viewBox="0 -960 960 960" width="24"><path d="M50-184.617q-12.749 0-21.374-8.629-8.625-8.629-8.625-21.384t8.625-21.371q8.625-8.615 21.375-8.615h122.308V-280q-30.308 0-51.308-21t-21-51.307V-727.69q0-30.307 21-51.307 21-21 51.308-21h615.382q30.308 0 51.308 21t21 51.307v375.383q0 30.307-21 51.307-21 21-51.308 21v35.384h122.308q12.75 0 21.375 8.629t8.625 21.384q0 12.755-8.625 21.371-8.625 8.615-21.375 8.615H50.001Z"/></svg>

<svg xmlns="http://www.w3.org/2000/svg" height="24" viewBox="0 -960 960 960" width="24"><path d="M50-184.62q-12.75 0-21.37-8.63Q20-201.87 20-214.63T28.63-236q8.62-8.62 21.37-8.62h122.31V-280Q142-280 121-301q-21-21-21-51.31v-375.38Q100-758 121-779q21-21 51.31-21h615.38Q818-800 839-779q21 21 21 51.31v375.38Q860-322 839-301q-21 21-51.31 21v35.38H910q12.75 0 21.37 8.63 8.63 8.63 8.63 21.39 0 12.75-8.63 21.37-8.62 8.61-21.37 8.61H50Z"/></svg>
